images/swarm.svg

<svg height="250" viewBox="0 0 250 250" width="250" xmlns="http://www.w3.org/2000/svg"><path d="m247.5625 16.242188c-34.960938.246093-113.582031-1.460938-115.941406-.246094l-37.488282 47.03125-46.027343-61.089844s-.375-2.0117188-3.976563-1.9375c-.992187 0-1.957031.429688-2.75 1.226562l-40.003906 53.804688c-.902344 1.332031-1.359375 3.105469-1.265625 4.90625.421875 3.679688 3.265625 4.90625 3.265625 4.90625l36.050781.246094s-.84375 67.332031.183594 70.054687c1.027344 2.722657 88.785156 112.121094 88.785156 112.121094.941407 1.296875 2.132813 2.21875 3.4375 2.660156 3.667969.722657 4.53125-4.367187 4.53125-4.367187l.367188-95.507813s78.390625-86.054687 110.832031-121.921875c.914062-1.054687 2.050781.230469 2.355469-5.816406.164062-3.640625-.523438-6.082031-2.355469-6.070312zm-208.394531 36.199218-21.851563.160156 22.101563-29.5625zm10.679687-29.316406 36.484375 48.636719-36.410156 46zm50.617188 168.140625 26.8125-30.054687-.183594 66.425781zm-7.863282-9.410156-40.726562-49.25 83.761719-103.949219 96.660156-.441406zm0 0" fill="#f7941d"/></svg>

<svg xmlns="http://www.w3.org/2000/svg" xmlns:xlink="http://www.w3.org/1999/xlink" width="250px" height="250px" viewBox="0 0 250 250" version="1.1">
<g id="surface1">
<path style=" stroke:none;fill-rule:nonzero;fill:rgb(96.862745%,58.039218%,11.372549%);fill-opacity:1;" d="M 247.5625 16.242188 C 212.601562 16.488281 133.980469 14.78125 131.621094 15.996094 L 94.132812 63.027344 L 48.105469 1.9375 C 48.105469 1.9375 47.730469 -0.0742188 44.128906 0 C 43.136719 0 42.171875 0.429688 41.378906 1.226562 L 1.375 55.03125 C 0.472656 56.363281 0.015625 58.136719 0.109375 59.9375 C 0.53125 63.617188 3.375 64.84375 3.375 64.84375 L 39.425781 65.089844 C 39.425781 65.089844 38.582031 132.421875 39.609375 135.144531 C 40.636719 137.867188 128.394531 247.265625 128.394531 247.265625 C 129.335938 248.5625 130.527344 249.484375 131.832031 249.925781 C 135.5 250.648438 136.363281 245.558594 136.363281 245.558594 L 136.730469 150.050781 C 136.730469 150.050781 215.121094 63.996094 247.5625 28.128906 C 248.476562 27.074219 249.613281 28.359375 249.917969 22.3125 C 250.082031 18.671875 249.394531 16.230469 247.5625 16.242188 Z M 39.167969 52.441406 L 17.316406 52.601562 L 39.417969 23.039062 Z M 49.847656 23.125 L 86.332031 71.761719 L 49.921875 117.761719 Z M 100.464844 191.265625 L 127.277344 161.210938 L 127.09375 227.636719 Z M 92.601562 181.855469 L 51.875 132.605469 L 135.636719 28.65625 L 232.296875 28.214844 Z M 92.601562 181.855469 "/>
</g>
</svg>
